X: 1
T: Steffaleken
O: etter Annar Gjelten
R: R\orospols
Z: 2000 by John Chambers <jc@trillian.mit.edu>
M: 3/4
L: 1/8
K: D
A \
|: "D" d2 d<c A>e | f2 f<d e>f | "A7"(3geg (3fdf e>c |1,3 (3def d<c A>c :|2,4 {c}"D"d2 d4 :|
f/g/ \
|: "A7"a2 a<f g>e | "D"f2 f<d e>f | "A7"(3geg (3fdf e>c |1,3 e"(D)"f d<c A>g :|2,4 {c}"D"d2 d4 :|
